icons/hospitalized.svg

<svg width="48" height="48" viewBox="0 0 48 48" fill="none" xmlns="http://www.w3.org/2000/svg">
<path fill-rule="evenodd" clip-rule="evenodd" d="M32 9C31.4477 9 31 8.55228 31 8V6H29V8C29 9.30622 29.8348 10.4175 31 10.8293V12H30C29.4477 12 29 12.4477 29 13V19C29 19.5523 29.4477 20 30 20H34C34.5523 20 35 19.5523 35 19V13C35 12.4477 34.5523 12 34 12H33V11H38V23.0664H20.11C20.0285 23.0664 19.9502 23.0337 19.8925 22.9756L19.5261 22.6068L19.8945 22.2387C21.3678 20.7667 21.3686 18.3793 19.8963 16.9063L18.0961 15.1052C16.624 13.6323 14.2364 13.6315 12.7632 15.1034L12.0591 15.8069C10.7199 15.4263 9.22155 15.7669 8.16703 16.8285C6.61099 18.3951 6.61099 20.9376 8.16703 22.5042L9 23.3428V34H6V36H9.05051C8.40223 36.6353 8 37.5207 8 38.5C8 40.433 9.567 42 11.5 42C13.433 42 15 40.433 15 38.5C15 37.5207 14.5978 36.6353 13.9495 36H34.0505C33.4022 36.6353 33 37.5207 33 38.5C33 40.433 34.567 42 36.5 42C38.433 42 40 40.433 40 38.5C40 37.5207 39.5978 36.6353 38.9495 36H42V34H38V30.9997H38.0662C40.2388 30.9997 42 29.2238 42 27.033C42 25.5511 41.194 24.2589 40 23.5779V11C40 9.89543 39.1046 9 38 9H32ZM13.8263 16.8684L18.1167 21.1878L18.4809 20.8239C19.1727 20.1327 19.1731 19.0118 18.4818 18.3202L16.6816 16.5191C15.9902 15.8273 14.8687 15.8269 14.1768 16.5182L13.8263 16.8684ZM16.2752 30.6672C16.4867 30.8801 16.7733 30.9997 17.0722 30.9997H36V34H11V25.3563L16.2752 30.6672ZM18.4736 24.3851C18.905 24.8194 19.4932 25.0664 20.11 25.0664H38.0662C39.1185 25.0664 40 25.9311 40 27.033C40 28.1349 39.1186 28.9997 38.0662 28.9997H17.4379L9.586 21.0948C8.80467 20.3081 8.80467 19.0246 9.586 18.238C10.3564 17.4623 11.5973 17.4623 12.3677 18.238L18.4736 24.3851ZM13 38.5C13 39.3284 12.3284 40 11.5 40C10.6716 40 10 39.3284 10 38.5C10 37.6716 10.6716 37 11.5 37C12.3284 37 13 37.6716 13 38.5ZM36.5 40C37.3284 40 38 39.3284 38 38.5C38 37.6716 37.3284 37 36.5 37C35.6716 37 35 37.6716 35 38.5C35 39.3284 35.6716 40 36.5 40ZM31 18V14H33V18H31Z" fill="black"/>
</svg>

<svg
  xmlns="http://www.w3.org/2000/svg"
  width="24"
  height="24"
  viewBox="0 0 24 24"
  fill="none"
  stroke="currentColor"
  stroke-width="2"
  stroke-linecap="round"
  stroke-linejoin="round"
>
  <path
    fill-rule="evenodd"
    d="M32 9a1 1 0 0 1-1-1V6h-2v2c0 1.306.835 2.418 2 2.83V12h-1a1 1 0 0 0-1 1v6a1 1 0 0 0 1 1h4a1 1 0 0 0 1-1v-6a1 1 0 0 0-1-1h-1v-1h5v12.066H20.11a.3.3 0 0 1-.218-.09l-.366-.37.369-.367a3.77 3.77 0 0 0 .001-5.333l-1.8-1.8a3.77 3.77 0 0 0-5.333-.003l-.704.704a3.95 3.95 0 0 0-3.892 1.021 4.034 4.034 0 0 0 0 5.676l.833.839V34H6v2h3.05a3.5 3.5 0 1 0 4.899 0h20.102a3.5 3.5 0 1 0 4.899 0H42v-2h-4v-3h.066C40.24 31 42 29.224 42 27.033a3.97 3.97 0 0 0-2-3.455V11a2 2 0 0 0-2-2zm-18.174 7.868 4.29 4.32.365-.364a1.77 1.77 0 0 0 0-2.504l-1.8-1.8a1.77 1.77 0 0 0-2.504-.002zm2.45 13.8c.21.212.497.332.796.332H36v3H11v-8.644zm2.198-6.283c.431.434 1.02.681 1.636.681h17.956c1.052 0 1.934.865 1.934 1.967S39.119 29 38.066 29H17.438l-7.852-7.905a2.034 2.034 0 0 1 0-2.857 1.953 1.953 0 0 1 2.782 0zM13 38.5a1.5 1.5 0 1 1-3 0 1.5 1.5 0 0 1 3 0M36.5 40a1.5 1.5 0 1 0 0-3 1.5 1.5 0 0 0 0 3M31 18v-4h2v4z"
    clip-rule="evenodd"
  />
</svg>
